X:234
T:Bevons, ma commere, nous ne bevons point.(Chanson 15)
S:from bay15.MID
C:Manuscript de Bayeux (fin XVe)
R:Chanson
M:2/4
L:1/16
Q:1/4=100
K:F 
V:1
B3G B2c2 | A2G2 c3d | BGA2 G4 | B3A B2c2 | 
d2d2 f2f_e | d2c2 B4 | d3c B2A2 | G2G2 c3B | 
A2G2 F4 | B3G B2c2 | A2G2 c3d | BGA2 G4 |]





